X:1
T:100 Progressive Recreations No. 3
T:100 Progressive Recreations No. 3
T:C. Czerny
T:Public Domain
C:C. Czerny
Z:Public Domain
%%score { 1 | 2 }
L:1/8
M:4/4
K:C
V:1 treble nm="Piano" snm="Pno."
V:2 treble 
V:1
 !3
1![ce]4 !5
3![ce]4 | [eg]4 [eg]4 | !4
2![df]4 [df]4 | !3
1![ce]8 | [ce]4 [ce]4 | %5
 !5
3![eg]4 [eg]4 | !4
2![df]4 !2!d4 | !1!c8 :: !2!d4 !4
2![df]4 | !3
1![ce]4 !5
3![eg]4 | %10
 !2!d4 !4
2![df]4 | !3
1![ce]8 | [ce]4 [ce]4 | !5
3![eg]4 [eg]4 | !4
2![df]4 !3
1![Bd]4 | !2!c8 :| %16
V:2
 !5!C8 | C8 | !1!G4 G4 | C8 | C8 | C8 | G4 G4 | C8 :: G4 G4 | C8 | G4 G4 | C8 | C8 | C8 | G4 G4 | %15
 C8 :| %16

